ids-wordpress/site-IdS/assets/images/icones redes sociais/github-branco.svg

<svg width="24" height="24" viewBox="0 0 24 24" fill="none" xmlns="http://www.w3.org/2000/svg">
<g clip-path="url(#clip0_627_744)">
<path fill-rule="evenodd" clip-rule="evenodd" d="M19.5291 7.095C19.9925 5.59994 19.8096 3.97919 19.0247 2.625C18.8907 2.3929 18.643 2.24994 18.375 2.25C16.6036 2.24629 14.9349 3.08067 13.875 4.5H11.625C10.5651 3.08067 8.89638 2.24629 7.125 2.25C6.85699 2.24994 6.60932 2.3929 6.47531 2.625C5.69035 3.97919 5.50747 5.59994 5.97094 7.095C5.50756 7.9038 5.25934 8.81791 5.25 9.75V10.5C5.25326 13.1241 7.19154 15.3436 9.79125 15.7003C9.27807 16.357 8.99952 17.1666 9 18V18.75H6.75C5.50736 18.75 4.5 17.7426 4.5 16.5C4.5 14.4289 2.82107 12.75 0.75 12.75C0.335786 12.75 0 13.0858 0 13.5C0 13.9142 0.335786 14.25 0.75 14.25C1.99264 14.25 3 15.2574 3 16.5C3 18.5711 4.67893 20.25 6.75 20.25H9V21.75C9 22.1642 9.33579 22.5 9.75 22.5C10.1642 22.5 10.5 22.1642 10.5 21.75V18C10.5 16.7574 11.5074 15.75 12.75 15.75C13.9926 15.75 15 16.7574 15 18V21.75C15 22.1642 15.3358 22.5 15.75 22.5C16.1642 22.5 16.5 22.1642 16.5 21.75V18C16.5005 17.1666 16.2219 16.357 15.7087 15.7003C18.3085 15.3436 20.2467 13.1241 20.25 10.5V9.75C20.2407 8.81791 19.9924 7.9038 19.5291 7.095ZM18.75 10.5C18.75 12.5711 17.0711 14.25 15 14.25H10.5C8.42893 14.25 6.75 12.5711 6.75 10.5V9.75C6.7592 9.00002 6.98373 8.26849 7.39687 7.6425C7.55345 7.43612 7.59244 7.16356 7.5 6.92156C7.10545 5.90402 7.1321 4.7713 7.57406 3.77344C8.8174 3.90719 9.9324 4.59924 10.6041 5.65406C10.7414 5.86876 10.9783 5.99905 11.2331 6H14.2659C14.5218 6.00001 14.76 5.8696 14.8978 5.65406C15.5694 4.59913 16.6844 3.90706 17.9278 3.77344C18.3692 4.77155 18.3951 5.90427 18 6.92156C17.9079 7.16109 17.9432 7.43094 18.0938 7.63875C18.511 8.26474 18.7388 8.99778 18.75 9.75V10.5Z" fill="#F3F3F5"/>
</g>
<defs>
<clipPath id="clip0_627_744">
<rect width="24" height="24" fill="white"/>
</clipPath>
</defs>
</svg>

<svg xmlns="http://www.w3.org/2000/svg" width="24" height="24" fill="none"><g clip-path="url(#a)"><path fill="#F3F3F5" fill-rule="evenodd" d="M19.53 7.095a5.605 5.605 0 0 0-.505-4.47.75.75 0 0 0-.65-.375 5.602 5.602 0 0 0-4.5 2.25h-2.25a5.602 5.602 0 0 0-4.5-2.25.75.75 0 0 0-.65.375 5.604 5.604 0 0 0-.504 4.47A5.45 5.45 0 0 0 5.25 9.75v.75a5.256 5.256 0 0 0 4.541 5.2A3.731 3.731 0 0 0 9 18v.75H6.75A2.25 2.25 0 0 1 4.5 16.5a3.75 3.75 0 0 0-3.75-3.75.75.75 0 0 0 0 1.5A2.25 2.25 0 0 1 3 16.5a3.75 3.75 0 0 0 3.75 3.75H9v1.5a.75.75 0 0 0 1.5 0V18a2.25 2.25 0 0 1 4.5 0v3.75a.75.75 0 0 0 1.5 0V18c0-.833-.278-1.643-.791-2.3a5.256 5.256 0 0 0 4.541-5.2v-.75a5.451 5.451 0 0 0-.72-2.655Zm-.78 3.405A3.75 3.75 0 0 1 15 14.25h-4.5a3.75 3.75 0 0 1-3.75-3.75v-.75c.01-.75.234-1.482.647-2.107a.75.75 0 0 0 .103-.721 4.107 4.107 0 0 1 .074-3.149 4.114 4.114 0 0 1 3.03 1.881.75.75 0 0 0 .63.346h3.032a.75.75 0 0 0 .632-.346 4.113 4.113 0 0 1 3.03-1.88c.441.998.467 2.13.072 3.148a.758.758 0 0 0 .094.717c.417.626.645 1.359.656 2.111v.75Z" clip-rule="evenodd"/></g><defs><clipPath id="a"><path fill="#fff" d="M0 0h24v24H0z"/></clipPath></defs></svg>
